Origami/16x16/apps/dassault-systemes.draftsight.svg

<svg width="16" height="16" version="1.1" viewBox="0 0 16 16" xmlns="http://www.w3.org/2000/svg">
 <path d="m0.59370603 4.1561564a0.9661077 0.83436574 75 0 0 -0.55583259 1.1490235l2.6669017 9.9530141a0.9661077 0.83436574 75 0 0 1.0558768 0.717167c2.8091775-0.752717 4.391841-4.024417 3.5202747-7.2771476-0.8715672-3.2527311-3.8780439-5.2947738-6.6872206-4.542057z" style="fill:#79b444"/>
 <path d="m7.9329028 5.5337999e-4a0.96438882 1.0435908 0 0 0 -0.9329028 1.0428071v13.913152a0.96438882 1.0435908 0 0 0 0.9642923 1.043487h7.0714777a0.96438882 1.0435908 0 0 0 0.845011 -1.546208l-7.0714775-13.913153a0.96438882 1.0435908 0 0 0 -0.8764007 -0.54008575z" style="fill:#35aabd"/>
 <path d="m12 9s-3 0.2-3 1 3 2.2 3 3-3 1-3 1" style="fill:none;stroke-linejoin:round;stroke-width:2;stroke:#ffffff"/>
 <path d="m1.96875 4.7871094l0.0019531 0.0039062c-2.709e-4 -0.00104 2.752e-4 -0.0028762 0-0.0039062h-0.0019531zm0.34375 1.2792968l1.9804688 7.3945318c0.9852822-0.861002 1.5333563-2.465013 1.0566406-4.2441411-0.4765187-1.778391-1.7538675-2.896765-3.0371094-3.1503907z" style="fill:#ffffff"/>
</svg>

<svg xmlns="http://www.w3.org/2000/svg" width="16" height="16" version="1.1" viewBox="0 0 16 16">
 <path style="fill:#79b444" d="M 0.59370603,4.1561564 A 0.9661077,0.83436574 75 0 0 0.03787344,5.3051799 L 2.7047751,15.258194 a 0.9661077,0.83436574 75 0 0 1.0558768,0.717167 C 6.5698294,15.222644 8.1524929,11.950944 7.2809266,8.6982134 6.4093594,5.4454823 3.4028827,3.4034396 0.59370603,4.1561564 Z"/>
 <path style="fill:#35aabd" d="M 7.9329028,5.5337999e-4 A 0.96438882,1.0435908 0 0 0 7,1.0433605 L 7,14.956513 A 0.96438882,1.0435908 0 0 0 7.9642923,16 l 7.0714777,0 a 0.96438882,1.0435908 0 0 0 0.845011,-1.546208 L 8.8093035,0.54063913 A 0.96438882,1.0435908 0 0 0 7.9329028,5.5337999e-4 Z"/>
 <path style="fill:none;stroke:#ffffff;stroke-width:2;stroke-linejoin:round" d="m 12,9 c 0,0 -3,0.2 -3,1 0,0.8 3,2.2 3,3 0,0.8 -3,1 -3,1"/>
 <path style="fill:#ffffff" d="M 1.96875 4.7871094 L 1.9707031 4.7910156 C 1.9704322 4.7899756 1.9709783 4.7881394 1.9707031 4.7871094 L 1.96875 4.7871094 z M 2.3125 6.0664062 L 4.2929688 13.460938 C 5.278251 12.599936 5.8263251 10.995925 5.3496094 9.2167969 C 4.8730907 7.4384059 3.5957419 6.3200319 2.3125 6.0664062 z"/>
</svg>
